src/assets/icons/calendar-events,simple,add-date.svg

<svg width="48" height="48" viewBox="0 0 48 48" fill="none" xmlns="http://www.w3.org/2000/svg">
<rect opacity="0.2" x="5" y="5" width="38" height="38" rx="4" fill="black"/>
<path d="M5 13C5 9.22876 5 7.34315 6.17157 6.17157C7.34315 5 9.22876 5 13 5H35C38.7712 5 40.6569 5 41.8284 6.17157C43 7.34315 43 9.22876 43 13V15H5V13Z" fill="black"/>
<path fill-rule="evenodd" clip-rule="evenodd" d="M39 48C43.9706 48 48 43.9706 48 39C48 34.0294 43.9706 30 39 30C34.0294 30 30 34.0294 30 39C30 43.9706 34.0294 48 39 48ZM39.9999 34.05C39.9999 33.4977 39.5522 33.05 38.9999 33.05C38.4477 33.05 37.9999 33.4977 37.9999 34.05V38H34.0499C33.4977 38 33.0499 38.4477 33.0499 39C33.0499 39.5523 33.4977 40 34.0499 40H37.9999V43.95C37.9999 44.5023 38.4477 44.95 38.9999 44.95C39.5522 44.95 39.9999 44.5023 39.9999 43.95V40H43.9499C44.5022 40 44.9499 39.5523 44.9499 39C44.9499 38.4477 44.5022 38 43.9499 38H39.9999V34.05Z" fill="black"/>
<path opacity="0.2" fill-rule="evenodd" clip-rule="evenodd" d="M37.5 42.9815V43.95C37.5 44.7784 38.1716 45.45 39 45.45C39.8284 45.45 40.5 44.7784 40.5 43.95V42.6145C39.7412 42.86 38.7744 42.9491 37.5 42.9815ZM42.6146 40.5H43.95C44.7784 40.5 45.45 39.8284 45.45 39C45.45 38.1716 44.7784 37.5 43.95 37.5H42.9816C42.9492 38.7744 42.86 39.7412 42.6146 40.5Z" fill="black"/>
</svg>

<svg xmlns="http://www.w3.org/2000/svg" width="48" height="48" fill="none" viewBox="0 0 48 48">
  <rect width="38" height="38" x="5" y="5" fill="#000" opacity=".2" rx="4"/>
  <path fill="#000" d="M5 13c0-3.771 0-5.657 1.172-6.828C7.343 5 9.229 5 13 5h22c3.771 0 5.657 0 6.828 1.172C43 7.343 43 9.229 43 13v2H5v-2z"/>
  <path fill="#000" fill-rule="evenodd" d="M39 48a9 9 0 100-18 9 9 0 000 18zm1-13.95a1 1 0 10-2 0V38h-3.95a1 1 0 000 2H38v3.95a1 1 0 002 0V40h3.95a1 1 0 100-2H40v-3.95z" clip-rule="evenodd"/>
  <path fill="#000" fill-rule="evenodd" d="M37.5 42.981v.969a1.5 1.5 0 003 0v-1.336c-.759.246-1.726.335-3 .367zm5.115-2.481h1.335a1.5 1.5 0 000-3h-.968c-.033 1.274-.122 2.241-.367 3z" clip-rule="evenodd" opacity=".2"/>
</svg>
